;FLAVOR:Marlin
;TIME:2757
;Filament used: 3.91162m
;Layer height: 0.3
;MINX:66.303
;MINY:84.064
;MINZ:0.3
;MAXX:129.789
;MAXY:115.935
;MAXZ:48
;Generated with Cura_SteamEngine 4.13.1
M140 S60
M105
M190 S60
M104 S200
M105
M109 S200
M82 ;absolute extrusion mode
G28 ;Home
G1 Z15.0 F6000 ;Move the platform down 15mm
;Prime the extruder
G92 E0
G1 F200 E3
G92 E0
G92 E0
G92 E0
G1 F1500 E-6.5
;LAYER_COUNT:160
;LAYER:0
M107
G0 F3600 X69.936 Y87.562 Z0.3
;TYPE:SKIRT
G1 F1500 E0
G1 F1800 X70.843 Y86.931 E0.05512
G1 X71.041 Y86.813 E0.06662
G1 X71.939 Y86.353 E0.11696
G1 X72.131 Y86.27 E0.1274
G1 X73.101 Y85.925 E0.17876
G1 X73.373 Y85.848 E0.19286
G1 X74.143 Y85.672 E0.23227
G1 X74.802 Y85.58 E0.26547
G1 X75.275 Y85.537 E0.28916
G1 X98.81 Y84.099 E1.46552
G1 X99.466 Y84.072 E1.49827
G1 X100.063 Y84.064 E1.52806
G1 X100.646 Y84.072 E1.55715
G1 X101.34 Y84.101 E1.5918
G1 X101.971 Y84.145 E1.62336
G1 X102.674 Y84.217 E1.65862
G1 X103.264 Y84.293 E1.68829
G1 X103.951 Y84.402 E1.723
G1 X104.56 Y84.517 E1.75392
G1 X105.225 Y84.66 E1.78785
G1 X105.825 Y84.809 E1.8187
G1 X106.623 Y85.035 E1.86007
G1 X107.242 Y85.232 E1.89248
G1 X107.772 Y85.414 E1.92044
G1 X108.378 Y85.642 E1.95274
G1 X108.942 Y85.873 E1.98315
G1 X109.447 Y86.095 E2.01067
G1 X109.996 Y86.352 E2.04091
G1 X110.554 Y86.632 E2.07206
G1 X111.015 Y86.879 E2.09815
G1 X111.618 Y87.223 E2.13279
G1 X112.26 Y87.616 E2.17034
G1 X112.882 Y88.025 E2.20748
G1 X113.322 Y88.334 E2.23431
G1 X113.732 Y88.634 E2.25965
G1 X114.244 Y89.03 E2.29194
G1 X114.487 Y89.228 E2.30758
G1 X115.004 Y89.666 E2.34139
G1 X115.537 Y90.146 E2.37717
G1 X115.974 Y90.563 E2.40731
G1 X116.469 Y91.062 E2.44237
G1 X116.841 Y91.459 E2.46952
G1 X117.225 Y91.89 E2.49832
G1 X117.66 Y92.404 E2.53191
G1 X118.049 Y92.894 E2.56312
G1 X118.353 Y93.297 E2.58831
G1 X118.717 Y93.804 E2.61945
G1 X119.005 Y94.226 E2.64494
G1 X119.29 Y94.668 E2.67117
G1 X119.643 Y95.245 E2.70492
G1 X119.887 Y95.683 E2.72993
G1 X120.011 Y95.923 E2.74341
G1 X120.337 Y96.642 E2.7828
G1 X120.532 Y97.196 E2.8121
G1 X120.606 Y97.435 E2.82458
G1 X120.801 Y98.2 E2.86397
G1 X120.908 Y98.884 E2.89851
G1 X120.934 Y99.119 E2.9103
G1 X120.981 Y99.908 E2.94974
G1 X120.963 Y100.503 E2.97943
G1 X120.949 Y100.71 E2.98979
G1 X120.856 Y101.495 E3.02922
G1 X120.722 Y102.125 E3.06136
G1 X120.648 Y102.413 E3.07619
G1 X120.413 Y103.167 E3.11559
G1 X120.126 Y103.845 E3.15233
G1 X120.032 Y104.041 E3.16317
G1 X119.723 Y104.621 E3.19596
G1 X119.382 Y105.188 E3.22897
G1 X119.08 Y105.661 E3.25696
G1 X118.751 Y106.151 E3.28641
G1 X118.331 Y106.736 E3.32234
G1 X118.157 Y106.968 E3.33681
G1 X117.846 Y107.367 E3.36205
G1 X117.475 Y107.816 E3.3911
G1 X117.143 Y108.205 E3.41662
G1 X116.798 Y108.59 E3.44241
G1 X116.327 Y109.085 E3.4765
G1 X115.956 Y109.456 E3.50267
G1 X115.482 Y109.907 E3.53532
G1 X115.015 Y110.323 E3.56652
G1 X114.543 Y110.726 E3.59748
G1 X113.935 Y111.211 E3.63628
G1 X113.73 Y111.366 E3.64911
G1 X113.174 Y111.772 E3.68345
G1 X112.392 Y112.298 E3.73047
G1 X111.688 Y112.736 E3.77184
G1 X111.098 Y113.075 E3.80579
G1 X110.466 Y113.412 E3.84152
G1 X110.286 Y113.504 E3.8516
G1 X109.808 Y113.739 E3.87818
G1 X109.321 Y113.962 E3.9049
G1 X108.737 Y114.213 E3.93661
G1 X108.207 Y114.424 E3.96507
G1 X107.563 Y114.661 E3.99931
G1 X106.954 Y114.864 E4.03134
G1 X106.252 Y115.072 E4.06786
G1 X105.467 Y115.282 E4.10841
G1 X104.835 Y115.425 E4.14073
G1 X104.033 Y115.584 E4.18152
G1 X103.804 Y115.624 E4.19312
G1 X103.298 Y115.703 E4.21867
G1 X102.549 Y115.797 E4.25633
G1 X101.766 Y115.871 E4.29557
G1 X101.052 Y115.913 E4.33125
G1 X100.523 Y115.931 E4.35766
G1 X99.837 Y115.935 E4.39189
G1 X99.183 Y115.918 E4.42453
G1 X98.656 Y115.892 E4.45085
G1 X90.966 Y115.42 E4.83523
G1 X90.399 Y115.387 E4.86356
G1 X90.153 Y115.37 E4.87587
G1 X88.891 Y115.295 E4.93894
G1 X88.208 Y115.253 E4.97308
G1 X77.614 Y114.608 E5.50259
G1 X75.216 Y114.458 E5.62246
G1 X74.52 Y114.386 E5.65737
G1 X73.365 Y114.15 E5.71619
G1 X73.08 Y114.069 E5.73097
G1 X72.008 Y113.678 E5.7879
G1 X71.806 Y113.587 E5.79895
G1 X70.897 Y113.103 E5.85033
G1 X70.702 Y112.982 E5.86178
G1 X69.84 Y112.362 E5.91475
G1 X69.683 Y112.232 E5.92492
G1 X68.939 Y111.528 E5.97602
G1 X68.76 Y111.335 E5.98915
G1 X68.253 Y110.73 E6.02854
G1 X67.882 Y110.199 E6.06085
G1 X67.354 Y109.289 E6.11334
G1 X67.251 Y109.08 E6.12497
G1 X66.836 Y108.063 E6.17977
G1 X66.755 Y107.816 E6.19273
G1 X66.5 Y106.817 E6.24417
G1 X66.452 Y106.56 E6.25722
G1 X66.335 Y105.62 E6.30448
G1 X66.303 Y104.874 E6.34173
G1 X66.304 Y95.094 E6.82965
G1 X66.324 Y94.535 E6.85756
G1 X66.341 Y94.299 E6.86936
G1 X66.456 Y93.414 E6.91389
G1 X66.502 Y93.17 E6.92628
G1 X66.781 Y92.107 E6.98111
G1 X66.872 Y91.839 E6.99523
G1 X67.308 Y90.806 E7.05117
G1 X67.416 Y90.594 E7.06304
G1 X67.974 Y89.664 E7.11714
G1 X68.109 Y89.471 E7.12889
G1 X68.775 Y88.645 E7.18183
G1 X68.923 Y88.485 E7.1927
G1 X69.749 Y87.713 E7.24911
G1 X69.936 Y87.562 E7.2611
G0 F3600 X70.187 Y87.874
G1 F1800 X71.048 Y87.274 E7.31346
G1 X71.246 Y87.156 E7.32496
G1 X72.098 Y86.721 E7.37268
G1 X72.29 Y86.638 E7.38312
G1 X73.21 Y86.31 E7.43185
G1 X73.482 Y86.233 E7.44595
G1 X74.598 Y86.008 E7.50275
G1 X75.3 Y85.936 E7.53796
G1 X98.835 Y84.498 E8.71431
G1 X99.481 Y84.472 E8.74657
G1 X100.06 Y84.464 E8.77546
G1 X100.631 Y84.472 E8.80395
G1 X101.321 Y84.501 E8.8384
G1 X101.941 Y84.544 E8.86941
G1 X102.632 Y84.615 E8.90406
G1 X103.211 Y84.689 E8.93318
G1 X103.886 Y84.797 E8.96729
G1 X104.478 Y84.908 E8.99734
G1 X105.131 Y85.049 E9.03067
G1 X105.72 Y85.195 E9.06094
G1 X106.511 Y85.419 E9.10196
G1 X107.118 Y85.612 E9.13373
G1 X107.634 Y85.79 E9.16097
G1 X108.228 Y86.013 E9.19262
G1 X108.782 Y86.24 E9.22249
G1 X109.279 Y86.458 E9.24957
G1 X109.819 Y86.711 E9.27932
G1 X110.371 Y86.988 E9.31013
G1 X110.825 Y87.231 E9.33582
G1 X111.41 Y87.564 E9.3694
G1 X111.888 Y87.855 E9.39732
G1 X112.427 Y88.201 E9.42928
G1 X113.092 Y88.66 E9.46959
G1 X113.651 Y89.075 E9.50432
G1 X114.228 Y89.533 E9.54108
G1 X114.745 Y89.971 E9.57488
G1 X115.269 Y90.442 E9.61003
G1 X115.695 Y90.85 E9.63946
G1 X116.184 Y91.343 E9.6741
G1 X116.547 Y91.73 E9.70058
G1 X116.921 Y92.15 E9.72863
G1 X117.352 Y92.66 E9.76195
G1 X117.73 Y93.135 E9.79223
G1 X118.034 Y93.538 E9.81742
G1 X118.386 Y94.03 E9.8476
G1 X118.674 Y94.452 E9.87309
G1 X118.952 Y94.882 E9.89863
G1 X119.3 Y95.451 E9.93191
G1 X119.655 Y96.106 E9.96908
G1 X119.972 Y96.807 E10.00746
G1 X120.15 Y97.314 E10.03427
G1 X120.224 Y97.553 E10.04675
G1 X120.413 Y98.299 E10.08514
G1 X120.51 Y98.928 E10.1169
G1 X120.536 Y99.163 E10.12869
G1 X120.581 Y99.931 E10.16707
G1 X120.564 Y100.476 E10.19428
G1 X120.55 Y100.683 E10.20463
G1 X120.458 Y101.447 E10.24302
G1 X120.334 Y102.026 E10.27256
G1 X120.26 Y102.314 E10.2874
G1 X120.03 Y103.048 E10.32577
G1 X119.765 Y103.672 E10.35959
G1 X119.671 Y103.868 E10.37044
G1 X119.378 Y104.419 E10.40157
G1 X119.045 Y104.973 E10.43382
G1 X118.747 Y105.439 E10.46142
G1 X118.424 Y105.92 E10.49032
G1 X118.007 Y106.502 E10.52604
G1 X117.841 Y106.722 E10.53979
G1 X117.53 Y107.121 E10.56503
G1 X117.169 Y107.558 E10.59331
G1 X116.839 Y107.946 E10.61872
G1 X116.503 Y108.32 E10.64381
G1 X116.038 Y108.808 E10.67743
G1 X115.677 Y109.169 E10.70291
G1 X115.209 Y109.615 E10.73516
G1 X114.75 Y110.023 E10.7658
G1 X114.285 Y110.421 E10.79633
G1 X113.688 Y110.896 E10.83439
G1 X113.494 Y111.044 E10.84657
G1 X113.091 Y111.34 E10.87151
G1 X112.588 Y111.69 E10.90209
G1 X112.104 Y112.009 E10.93101
G1 X111.481 Y112.394 E10.96754
G1 X110.899 Y112.728 E11.00102
G1 X110.281 Y113.058 E11.03597
G1 X110.11 Y113.145 E11.04555
G1 X109.632 Y113.38 E11.07212
G1 X109.153 Y113.599 E11.0984
G1 X108.581 Y113.844 E11.12944
G1 X108.066 Y114.05 E11.15711
G1 X107.429 Y114.284 E11.19097
G1 X106.829 Y114.483 E11.22251
G1 X106.145 Y114.687 E11.25812
G1 X105.378 Y114.892 E11.29773
G1 X104.753 Y115.034 E11.3297
G1 X103.959 Y115.191 E11.37008
G1 X103.743 Y115.228 E11.38102
G1 X103.237 Y115.307 E11.40657
G1 X102.977 Y115.343 E11.41966
G1 X102.402 Y115.412 E11.44856
G1 X101.733 Y115.473 E11.48207
G1 X101.03 Y115.514 E11.5172
G1 X100.512 Y115.531 E11.54306
G1 X99.845 Y115.535 E11.57634
G1 X99.196 Y115.519 E11.60873
G1 X98.68 Y115.493 E11.6345
G1 X90.948 Y115.018 E12.02098
G1 X90.427 Y114.988 E12.04702
G1 X90.21 Y114.973 E12.05787
G1 X88.918 Y114.896 E12.12244
G1 X88.231 Y114.854 E12.15678
G1 X77.639 Y114.209 E12.68619
G1 X75.241 Y114.059 E12.80607
G1 X74.57 Y113.989 E12.83972
G1 X73.474 Y113.765 E12.89553
G1 X73.189 Y113.684 E12.91031
G1 X72.173 Y113.313 E12.96428
G1 X71.971 Y113.222 E12.97533
G1 X71.108 Y112.763 E13.0241
G1 X70.913 Y112.642 E13.03555
G1 X70.096 Y112.054 E13.08577
G1 X69.939 Y111.924 E13.09593
G1 X69.232 Y111.256 E13.14446
G1 X69.053 Y111.063 E13.15759
G1 X68.342 Y110.166 E13.2147
G1 X68.214 Y109.976 E13.22613
G1 X67.713 Y109.112 E13.27596
G1 X67.61 Y108.903 E13.28758
G1 X67.216 Y107.938 E13.33958
G1 X67.135 Y107.691 E13.35255
G1 X66.893 Y106.744 E13.40132
G1 X66.845 Y106.487 E13.41436
G1 X66.734 Y105.595 E13.4592
G1 X66.703 Y104.874 E13.49521
G1 X66.704 Y95.094 E13.98313
G1 X66.723 Y94.563 E14.00964
G1 X66.74 Y94.327 E14.02145
G1 X66.849 Y93.488 E14.06366
G1 X66.895 Y93.244 E14.07604
G1 X67.16 Y92.236 E14.12804
G1 X67.251 Y91.968 E14.14216
G1 X67.664 Y90.988 E14.19522
G1 X67.772 Y90.776 E14.20709
G1 X68.302 Y89.893 E14.25847
G1 X68.437 Y89.7 E14.27022
G1 X69.069 Y88.917 E14.32042
G1 X69.217 Y88.757 E14.3313
G1 X70 Y88.025 E14.38477
G1 X70.187 Y87.874 E14.39676
G0 F3600 X70.438 Y88.185
G1 F1800 X71.252 Y87.618 E14.44625
G1 X71.45 Y87.5 E14.45775
G1 X72.256 Y87.088 E14.50291
G1 X72.448 Y87.005 E14.51335
G1 X73.319 Y86.695 E14.55947
G1 X73.591 Y86.618 E14.57358
G1 X74.647 Y86.405 E14.62732
G1 X75.324 Y86.335 E14.66128
G1 X98.859 Y84.897 E15.83763
G1 X99.495 Y84.872 E15.86939
G1 X100.057 Y84.864 E15.89743
G1 X100.617 Y84.872 E15.92537
G1 X101.301 Y84.9 E15.95952
G1 X101.911 Y84.943 E15.99003
G1 X102.589 Y85.012 E16.02403
G1 X103.159 Y85.086 E16.05271
G1 X103.821 Y85.191 E16.08615
G1 X104.396 Y85.3 E16.11535
G1 X105.036 Y85.437 E16.148
G1 X105.615 Y85.581 E16.17777
G1 X106.399 Y85.803 E16.21842
G1 X106.994 Y85.992 E16.24957
G1 X107.495 Y86.165 E16.27601
G1 X108.077 Y86.383 E16.30701
G1 X108.623 Y86.607 E16.33646
G1 X109.111 Y86.821 E16.36304
G1 X109.642 Y87.07 E16.3923
G1 X110.188 Y87.343 E16.42276
G1 X110.636 Y87.583 E16.44811
G1 X111.202 Y87.906 E16.48063
G1 X111.828 Y88.289 E16.51724
G1 X112.436 Y88.689 E16.55355
G1 X112.861 Y88.987 E16.57944
G1 X113.405 Y89.39 E16.61322
G1 X113.97 Y89.838 E16.64919
G1 X114.487 Y90.276 E16.683
G1 X115 Y90.739 E16.71748
G1 X115.416 Y91.137 E16.7462
G1 X115.899 Y91.624 E16.78042
G1 X116.253 Y92.001 E16.80622
G1 X116.617 Y92.41 E16.83353
G1 X117.045 Y92.916 E16.8666
G1 X117.41 Y93.375 E16.89586
G1 X117.714 Y93.778 E16.92104
G1 X118.056 Y94.255 E16.95032
G1 X118.344 Y94.677 E16.97581
G1 X118.716 Y95.256 E17.01015
G1 X119.176 Y96.05 E17.05593
G1 X119.3 Y96.29 E17.06941
G1 X119.607 Y96.972 E17.10672
G1 X119.842 Y97.672 E17.14356
G1 X120.025 Y98.397 E17.18086
G1 X120.113 Y98.972 E17.20988
G1 X120.139 Y99.207 E17.22168
G1 X120.181 Y99.954 E17.25901
G1 X120.151 Y100.656 E17.29406
G1 X120.061 Y101.399 E17.3314
G1 X119.947 Y101.926 E17.3583
G1 X119.873 Y102.214 E17.37314
G1 X119.648 Y102.928 E17.41048
G1 X119.405 Y103.499 E17.44144
G1 X119.311 Y103.695 E17.45229
G1 X119.033 Y104.216 E17.48175
G1 X118.708 Y104.758 E17.51328
G1 X118.509 Y105.071 E17.53178
G1 X118.203 Y105.535 E17.55951
G1 X117.877 Y106.002 E17.58793
G1 X117.526 Y106.476 E17.61735
G1 X117.215 Y106.875 E17.64259
G1 X116.863 Y107.3 E17.67012
G1 X116.534 Y107.686 E17.69543
G1 X116.093 Y108.172 E17.72817
G1 X115.631 Y108.652 E17.76141
G1 X115.219 Y109.056 E17.79019
G1 X114.788 Y109.457 E17.81956
G1 X114.298 Y109.887 E17.85209
G1 X113.83 Y110.276 E17.88245
G1 X113.257 Y110.722 E17.91868
G1 X112.854 Y111.018 E17.94362
G1 X112.368 Y111.356 E17.97316
G1 X111.887 Y111.672 E18.00187
G1 X111.275 Y112.051 E18.03778
G1 X110.7 Y112.381 E18.07086
G1 X110.095 Y112.704 E18.10507
G1 X109.933 Y112.786 E18.11413
G1 X109.455 Y113.021 E18.14071
G1 X108.986 Y113.235 E18.16642
G1 X108.426 Y113.476 E18.19684
G1 X107.924 Y113.676 E18.2238
G1 X107.296 Y113.907 E18.25718
G1 X106.705 Y114.103 E18.28825
G1 X106.038 Y114.301 E18.32296
G1 X105.289 Y114.502 E18.36165
G1 X104.671 Y114.642 E18.39326
G1 X103.886 Y114.798 E18.43319
G1 X103.681 Y114.833 E18.44357
G1 X103.175 Y114.912 E18.46912
G1 X102.454 Y115.003 E18.50537
G1 X101.7 Y115.074 E18.54316
G1 X101.008 Y115.115 E18.57774
G1 X100.501 Y115.131 E18.60305
G1 X99.852 Y115.135 E18.63543
G1 X99.21 Y115.119 E18.66747
G1 X98.705 Y115.094 E18.69269
G1 X90.973 Y114.619 E19.07917
G1 X90.455 Y114.589 E19.10506
G1 X90.234 Y114.574 E19.11611
G1 X88.945 Y114.497 E19.18053
G1 X88.254 Y114.455 E19.21507
G1 X77.664 Y113.809 E19.74439
G1 X75.266 Y113.659 E19.86426
G1 X74.62 Y113.592 E19.89666
G1 X73.583 Y113.38 E19.94947
G1 X73.298 Y113.299 E19.96425
G1 X72.337 Y112.948 E20.01529
G1 X72.135 Y112.857 E20.02635
G1 X71.319 Y112.423 E20.07246
G1 X71.124 Y112.302 E20.08391
G1 X70.351 Y111.746 E20.13141
G1 X70.194 Y111.616 E20.14158
G1 X69.526 Y110.984 E20.18746
G1 X69.347 Y110.791 E20.20059
G1 X68.674 Y109.942 E20.25464
G1 X68.546 Y109.752 E20.26607
G1 X68.072 Y108.935 E20.31319
G1 X67.969 Y108.726 E20.32482
G1 X67.597 Y107.813 E20.374
G1 X67.516 Y107.566 E20.38697
G1 X67.286 Y106.67 E20.43312
G1 X67.238 Y106.413 E20.44617
G1 X67.133 Y105.57 E20.48855
G1 X67.103 Y104.874 E20.52331
G1 X67.104 Y95.094 E21.01123
G1 X67.122 Y94.592 E21.03629
G1 X67.139 Y94.356 E21.0481
G1 X67.242 Y93.562 E21.08804
G1 X67.288 Y93.318 E21.10043
G1 X67.539 Y92.364 E21.14965
G1 X67.63 Y92.096 E21.16377
G1 X68.021 Y91.17 E21.21391
G1 X68.129 Y90.958 E21.22578
G1 X68.63 Y90.123 E21.27437
G1 X68.765 Y89.93 E21.28612
G1 X69.362 Y89.189 E21.33359
G1 X69.51 Y89.029 E21.34446
G1 X70.251 Y88.336 E21.39508
G1 X70.438 Y88.185 E21.40707
G0 F3600 X70.69 Y88.496
G1 F1800 X71.457 Y87.961 E21.45373
G1 X71.655 Y87.843 E21.46523
G1 X72.415 Y87.455 E21.5078
G1 X72.607 Y87.372 E21.51823
G1 X73.428 Y87.08 E21.56171
G1 X73.7 Y87.003 E21.57581
G1 X74.695 Y86.802 E21.62645
G1 X75.348 Y86.734 E21.65921
G1 X98.883 Y85.296 E22.83556
G1 X99.51 Y85.271 E22.86687
G1 X100.053 Y85.264 E22.89396
G1 X100.602 Y85.271 E22.92135
G1 X101.282 Y85.3 E22.95531
G1 X101.882 Y85.342 E22.98532
G1 X102.546 Y85.41 E23.01862
G1 X103.106 Y85.482 E23.04679
G1 X103.757 Y85.586 E23.07968
G1 X104.315 Y85.691 E23.108
G1 X104.941 Y85.826 E23.13995
G1 X105.51 Y85.967 E23.1692
G1 X106.287 Y86.187 E23.20949
G1 X106.87 Y86.372 E23.24
G1 X107.357 Y86.54 E23.26571
G1 X107.927 Y86.754 E23.29608
G1 X108.463 Y86.974 E23.32499
G1 X108.943 Y87.184 E23.35113
G1 X109.465 Y87.428 E23.37987
G1 X110.004 Y87.699 E23.40997
G1 X110.446 Y87.935 E23.43497
G1 X110.994 Y88.248 E23.46645
G1 X111.472 Y88.539 E23.49437
G1 X111.981 Y88.865 E23.52453
G1 X112.63 Y89.314 E23.5639
G1 X113.159 Y89.706 E23.59675
G1 X113.711 Y90.143 E23.63188
G1 X114.228 Y90.581 E23.66568
G1 X114.732 Y91.036 E23.69956
G1 X115.138 Y91.424 E23.72757
G1 X115.615 Y91.905 E23.76137
G1 X115.959 Y92.272 E23.78647
G1 X116.313 Y92.67 E23.81304
G1 X116.737 Y93.172 E23.84582
G1 X117.091 Y93.616 E23.87415
G1 X117.395 Y94.019 E23.89934
G1 X117.725 Y94.481 E23.92766
G1 X118.013 Y94.903 E23.95315
G1 X118.373 Y95.462 E23.98632
G1 X118.821 Y96.233 E24.03081
G1 X118.945 Y96.473 E24.04429
G1 X119.242 Y97.136 E24.08053
G1 X119.46 Y97.79 E24.11493
G1 X119.636 Y98.495 E24.15118
G1 X119.715 Y99.016 E24.17747
G1 X119.741 Y99.251 E24.18926
G1 X119.781 Y99.976 E24.22549
G1 X119.752 Y100.629 E24.2581
G1 X119.663 Y101.35 E24.29434
G1 X119.485 Y102.114 E24.33348
G1 X119.266 Y102.807 E24.36974
G1 X119.044 Y103.326 E24.3979
G1 X118.95 Y103.522 E24.40875
G1 X118.688 Y104.013 E24.43651
G1 X118.37 Y104.543 E24.46735
G1 X118.081 Y104.996 E24.49416
G1 X117.77 Y105.459 E24.52198
G1 X117.358 Y106.034 E24.55727
G1 X117.211 Y106.23 E24.5695
G1 X116.9 Y106.629 E24.59474
G1 X116.558 Y107.042 E24.62149
G1 X116.23 Y107.427 E24.64672
G1 X115.804 Y107.895 E24.67829
G1 X115.349 Y108.368 E24.71104
G1 X114.94 Y108.77 E24.73965
G1 X114.523 Y109.157 E24.76803
